symbolic/24x24/apps/pdfstudio.svg

<svg xmlns="http://www.w3.org/2000/svg" width="24" height="24" version="1.1">
 <rect style="opacity:0.2" width="20" height="20" x="2" y="2.5" rx="1.5" ry="1.5"/>
 <rect style="fill:#0b4d9c" width="20" height="20" x="2" y="2" rx="1.5" ry="1.5"/>
 <path style="opacity:0.1;fill:#ffffff" d="m 3.4999999,1.9999999 c -0.831,0 -1.5,0.6689999 -1.5,1.5 v 0.4999999 c 0,-0.831 0.669,-1.4999999 1.5,-1.4999999 H 20.499999 c 0.831,0 1.5,0.6689999 1.5,1.4999999 V 3.4999999 c 0,-0.8310001 -0.669,-1.5 -1.5,-1.5 z"/>
 <path style="opacity:0.2" d="M 11.455078,6.5 C 8.4332594,6.5 6,8.7299997 6,11.5 v 2 c 0,2.77 2.4332595,5 5.455078,5 h 1.089844 c 0.694988,0 1.352608,-0.130349 1.96289,-0.345703 L 16.763672,20.5 18.5,18.960938 16.523438,16.908203 C 17.433618,16.015526 18,14.823838 18,13.5 v -2 c 0,-2.7700003 -2.433261,-5 -5.455078,-5 z m 0.271484,2 h 0.546876 C 13.784345,8.5 15,9.9873169 15,11.833984 v 1.332032 C 15,15.012682 13.784344,16.5 12.273438,16.5 H 11.726562 C 10.215654,16.5 9,15.012682 9,13.166016 V 11.833984 C 9,9.9873169 10.215653,8.5 11.726562,8.5 Z"/>
 <path style="fill:#ffffff" d="M 11.455078 6 C 8.4332593 6 6 8.2299997 6 11 L 6 13 C 6 15.77 8.4332594 18 11.455078 18 L 12.544922 18 C 15.566739 18 18 15.77 18 13 L 18 11 C 18 8.2299997 15.566739 6 12.544922 6 L 11.455078 6 z M 11.726562 8 L 12.273438 8 C 13.784346 8 15 9.4873165 15 11.333984 L 15 12.666016 C 15 14.512682 13.784345 16 12.273438 16 L 11.726562 16 C 10.215653 16 9 14.512682 9 12.666016 L 9 11.333984 C 9 9.4873165 10.215652 8 11.726562 8 z"/>
 <path style="fill:#ffffff" d="m 13.499999,16.608248 0.612495,0.636597 2.651736,2.755154 1.735769,-1.539754 -2.651737,-2.755155 -0.678868,-0.705091 z"/>
 <path style="opacity:0.1" d="m 1.9999999,4.5 v 5 H 9.9999996 C 10.554,9.5 11,9.0044444 11,8.3888889 V 5.611111 C 11,4.9955555 10.554,4.5 9.9999996,4.5 Z"/>
 <path style="fill:#e46200" d="M 1.9999999,4 V 9 H 9.9999996 C 10.554,9 11,8.5044444 11,7.8888889 V 5.111111 C 11,4.4955555 10.554,4 9.9999996,4 Z"/>
 <path style="opacity:0.1" d="m 3,5.5 v 3 H 3.5 V 7.0097656 h 0.4492188 c 0.25,0 0.4507378,-0.033489 0.6035156,-0.1035156 C 4.7082899,6.836222 4.8211805,6.7389504 4.890625,6.6152344 4.962848,6.4891839 5,6.4430762 5,6.2773438 5,6.0299106 4.916666,5.8385125 4.75,5.703125 4.583333,5.5677375 4.3262521,5.4655364 3.9863281,5.5 Z m 2.5,0 v 3 H 6.2988281 C 6.6670821,8.5 6.9599092,8.3893429 7.1757812,8.1699219 7.3916548,7.9505004 7.5,7.4377939 7.5,7.0292969 7.5,6.6231349 7.3943868,6.0159624 7.1835938,5.8105469 6.9753391,5.6027971 6.6923481,5.4583568 6.3417969,5.5 Z m 2.5,0 v 3 H 8.5 V 7 h 1 V 6.5 h -1 V 6 H 10 V 5.5 Z M 3.5,6 H 3.96875 C 4.1524235,6 4.2860597,6.02005 4.3710938,6.060547 4.4561278,6.1010448 4.5,6.1615861 4.5,6.2441406 4.4371615,6.5492009 4.3169614,6.4998827 3.8710938,6.5 H 3.5 Z M 6,6 H 6.3007812 C 6.5334059,6 6.7079067,6.058259 6.8242188,6.1757812 6.9405306,6.2911658 7,6.7787457 7,7.0351562 7,7.2937027 6.9383922,7.684478 6.8164062,7.8105469 6.6972572,7.9366149 6.508156,8 6.25,8 H 6 Z"/>
 <path style="fill:#ffffff" d="M 3 5 L 3 8 L 3.5 8 L 3.5 6.5097656 L 3.9492188 6.5097656 C 4.1992188 6.5097656 4.3999566 6.4762766 4.5527344 6.40625 C 4.7082899 6.336222 4.8211805 6.2389504 4.890625 6.1152344 C 4.962848 5.9891839 5 5.9430762 5 5.7773438 C 5 5.5299106 4.916666 5.3385125 4.75 5.203125 C 4.583333 5.0677375 4.3262521 4.9655364 3.9863281 5 L 3 5 z M 5.5 5 L 5.5 8 L 6.2988281 8 C 6.6670821 8 6.9599092 7.8893429 7.1757812 7.6699219 C 7.3916548 7.4505004 7.5 6.9377939 7.5 6.5292969 C 7.5 6.1231349 7.3943868 5.5159624 7.1835938 5.3105469 C 6.9753391 5.1027971 6.6923481 4.9583568 6.3417969 5 L 5.5 5 z M 8 5 L 8 8 L 8.5 8 L 8.5 6.5 L 9.5 6.5 L 9.5 6 L 8.5 6 L 8.5 5.5 L 10 5.5 L 10 5 L 8 5 z M 3.5 5.5 L 3.96875 5.5 C 4.1524235 5.5 4.2860597 5.5200499 4.3710938 5.5605469 C 4.4561278 5.6010448 4.5 5.6615861 4.5 5.7441406 C 4.4371615 6.0492009 4.3169614 5.9998827 3.8710938 6 L 3.5 6 L 3.5 5.5 z M 6 5.5 L 6.3007812 5.5 C 6.5334059 5.5 6.7079067 5.558259 6.8242188 5.6757812 C 6.9405306 5.7911658 7 6.2787457 7 6.5351562 C 7 6.7937027 6.9383922 7.184478 6.8164062 7.3105469 C 6.6972572 7.4366149 6.508156 7.5 6.25 7.5 L 6 7.5 L 6 5.5 z"/>
</svg>

<svg xmlns="http://www.w3.org/2000/svg" width="24" height="24"><rect style="opacity:.2" width="20" height="20" x="2" y="2.5" rx="1.5" ry="1.5"/><rect style="fill:#0b4d9c" width="20" height="20" x="2" y="2" rx="1.5" ry="1.5"/><path style="opacity:.1;fill:#fff" d="M3.5 2C2.669 2 2 2.669 2 3.5V4c0-.831.669-1.5 1.5-1.5h17c.831 0 1.5.669 1.5 1.5v-.5c0-.831-.669-1.5-1.5-1.5z"/><path style="opacity:.2" d="M11.455 6.5C8.433 6.5 6 8.73 6 11.5v2c0 2.77 2.433 5 5.455 5h1.09a5.88 5.88 0 0 0 1.963-.346l2.256 2.346 1.736-1.54-1.977-2.052C17.433 16.016 18 14.824 18 13.5v-2c0-2.77-2.433-5-5.455-5zm.272 2h.546C13.784 8.5 15 9.987 15 11.834v1.332c0 1.847-1.216 3.334-2.727 3.334h-.546C10.216 16.5 9 15.013 9 13.166v-1.332C9 9.987 10.216 8.5 11.727 8.5z"/><path style="fill:#fff" d="M11.455 6C8.433 6 6 8.23 6 11v2c0 2.77 2.433 5 5.455 5h1.09C15.567 18 18 15.77 18 13v-2c0-2.77-2.433-5-5.455-5h-1.09zm.272 2h.546C13.784 8 15 9.487 15 11.334v1.332C15 14.513 13.784 16 12.273 16h-.546C10.216 16 9 14.513 9 12.666v-1.332C9 9.487 10.216 8 11.727 8z"/><path style="fill:#fff" d="m13.5 16.608.612.637L16.764 20l1.736-1.54-2.652-2.755L15.17 15z"/><path style="opacity:.1" d="M2 4.5v5h8c.554 0 1-.496 1-1.111V5.61c0-.615-.446-1.111-1-1.111z"/><path style="fill:#e46200" d="M2 4v5h8c.554 0 1-.496 1-1.111V5.11C11 4.496 10.554 4 10 4z"/><path style="opacity:.1" d="M3 5.5v3h.5V7.01h.45c.25 0 .45-.034.603-.104a.7.7 0 0 0 .338-.29c.072-.127.109-.173.109-.339 0-.247-.083-.438-.25-.574-.167-.135-.424-.237-.764-.203zm2.5 0v3h.799c.368 0 .66-.11.877-.33.216-.22.324-.732.324-1.14 0-.407-.106-1.014-.316-1.22-.209-.207-.492-.352-.842-.31zm2.5 0v3h.5V7h1v-.5h-1V6H10v-.5zM3.5 6h.469c.183 0 .317.02.402.06.085.041.129.102.129.184-.063.305-.183.256-.629.256H3.5zM6 6h.3c.233 0 .408.058.524.176.117.115.176.603.176.86 0 .258-.062.648-.184.775-.119.126-.308.189-.566.189H6z"/><path style="fill:#fff" d="M3 5v3h.5V6.51h.45c.25 0 .45-.034.603-.104a.7.7 0 0 0 .338-.29c.072-.127.109-.173.109-.339 0-.247-.083-.438-.25-.574-.167-.135-.424-.237-.764-.203H3zm2.5 0v3h.799c.368 0 .66-.11.877-.33.216-.22.324-.732.324-1.14 0-.407-.106-1.014-.316-1.22-.209-.207-.492-.352-.842-.31H5.5zM8 5v3h.5V6.5h1V6h-1v-.5H10V5H8zm-4.5.5h.469c.183 0 .317.02.402.06.085.041.129.102.129.184-.063.305-.183.256-.629.256H3.5v-.5zm2.5 0h.3c.233 0 .408.058.524.176.117.115.176.603.176.86 0 .258-.062.648-.184.775-.119.126-.308.189-.566.189H6v-2z"/></svg>
